X: 28780
T: My Love Is In America
R: reel
M: 4/4
K: Dmajor
|:F3G A2=cB|Ad d2 fded|F3 G A2 =cB|dAAG FDDE|
F3 G A2 =cB|Addc defg|afge fdec|ABAG FD D2:|
f3 g fdec|Ad d2 Ad d2|f3 g fdec|ABAG FD D2|
f3 g fdec|Addc defg|(3agf ge fdec|ABAG FD D2|
(3agf ge fdec|Ad d2 Add2|(3fde fg fdec|ABAG FDD2|
f3 g fdec|Addc defg|(3agf ge fdec|ABAG FD D2||

